X: 38
M: 2/4
L: 1/16
K: G
(d>c) | (cB) (AG) G2 G2 | G4 D3 E |
=F3 G F2 F2 | A2 c2 z2 (dc) | B2 (AG) G2 G2 |
(ef) | (gf) (ed) (ed) (cB) | c4 =f3 c |
{_B}A2 (G=F) F3 G | A2 c2 z2 d2 | (cB) (AG) A2 D2 |
(B>ABc) d2 g2 | (gf) (fg) g2 G2 | B2 d2 z2 :|
K:

